X:1
T:Title
%%score { ( 1 3 ) | 2 }
L:1/8
M:4/4
K:G
V:1 treble nm="Grand Piano"
V:3 treble 
V:2 bass 
V:1
 z4 z2[Q:1/4=94] D>D | [DB]>[DB] [Ed]>[Ec] [DB]>[DB] [DA]>[DG] | A>B A>G E2 [CF]>[CE] | %3
 D>E F>G A>c B>A | [B,B]6 D>D | [DB]>[DB] [Ed]>[Ec] [DB]>[DB] [DA]>[DG] | A>B A>G E2 [CF]>[CE] | %7
 D>E F>G A>c B>A |[M:3/4] [G,B,G]6 |[M:1/4] d>^c |[M:4/4] e>d c>B d>c B>A | G>F G>A B2 [Dd]>[D^c] | %12
 [De]>[Dd] [Dc]>[DB] [DA]>[CE] [^CF]>[CG] |[M:9/8] A6- A z z | %14
[M:4/4] [DB]>[DB] [Ed]>[Ec] [DB]>[DB] [DA]>[DG] | A>B A>G E2 [CF]>[CE] | D>E F>G A>c B>A | %17
[M:3/4] [B,G]6 |] %18
V:2
 z4 z2 D,>D, | [G,,G,]>[G,,G,] [G,,G,]>[G,,G,] [G,,G,]>[G,,G,] [B,,G,]>[B,,G,] | %2
 [C,E,C]>[C,E,C] [C,E,C]>[C,E,B,] [C,G,C]2 [A,,A,]>[A,,G,] | %3
 [D,F,C]>[D,G,C] [D,A,C]>[D,G,C] [D,F,C]>[D,F,C] [D,E,C]>[D,F,C] | [G,,D,G,]6 D,>D, | %5
 [G,,G,]>[G,,G,] [G,,G,]>[G,,G,] [G,,G,]>[G,,G,] [B,,G,]>[B,,G,] | %6
 [C,E,C]>[C,E,C] [C,E,C]>[C,E,C] [C,G,C]2 [A,,A,]>[A,,G,] | %7
 [D,F,C]>[D,G,C] [D,A,C]>[D,G,C] [D,F,C]>[D,F,C] [D,E,C]>[D,F,C] |[M:3/4] G,,6 | %9
[M:1/4][K:treble] D>^C |[M:4/4] E>D C>B, D>C[K:bass] B,>A, | G,>F, G,>A, B,2 [B,,G,]>[B,,G,] | %12
 [B,,G,]>[B,,G,] [E,^G,]>[E,G,] [A,,A,]>[A,,A,] [A,,G,]>[A,,G,] | %13
[M:9/8] [D,F,D]2 [E,G,]- [E,G,] [F,A,]2- [F,A,]D,>D, | %14
[M:4/4] [G,,G,]>[G,,G,] [G,,G,]>[G,,G,] [G,,G,]>[G,,G,] [B,,G,]>[B,,G,] | %15
 [C,E,C]>[C,E,C] [C,E,C]>[C,E,C] [C,G,C]2 [A,,A,]>[A,,G,] | %16
 [D,F,C]>[D,G,C] [D,A,C]>[D,G,C] [D,F,C]>[D,F,C] [D,E,C]>[D,F,C] |[M:3/4] [G,,G,]6 |] %18
V:3
 x8 | x8 | x8 | x8 | x8 | x8 | x8 | x8 |[M:3/4] x6 |[M:1/4] x2 |[M:4/4] x8 | x8 | x8 | %13
[M:9/8] z2 ^C- C D2- DD>D |[M:4/4] x8 | x8 | x8 |[M:3/4] x6 |] %18

